X:1
T: Lord Balgonie's Favourite
P:A very old Highland tune
R:Strathspey
Q: 128
K:Am
M:4/4
L:1/16
|:E2|A4 A3B A2G2 E4|c4 c3e d3c BG3|AA3 e4 A3G E2C2|DD3 E3G A2A,2 A,2E2|
A4 A3B A2G2 E4|c4 c3e d3c BG3|AA3 e4 A3G E2C2|DD3 E3G A2A,2 A,2B,2|
C4 C3E D3C B,2D2|C3B, A,2C2 B,2E2 E4|c4 c2e2 d3c B2d2|c3A cBAG E2A2 A2B,2|
C4 C3E D3C B,2D2|C3B, A,2C2 B,2E2 E4|c4 c2e2 d3c B2d2|c3A cBAG E2A2 A2B2|
cc3 g4 B3c d4|c3B A2c2 B2e2 e4|E4 F2ED E2A2 B2d2|c3A cBAG E2A2 A2B2|
cc3 g4 B3c d4|c3B A2c2 B2e2 e4|E4 F2ED E2A2 B2d2|c3A cBAG E2A2 A2:|
